X: 1146
T: Ganglat Fran Appelbo
C:Trad, from Dalarna, Sweden
B: australian traditional tunes wiki
B: ralph
M:2/4
L:1/8
R: Walking tune
Q: 1/4=100
K:G
V:1 
|:D|"G"GG/D/ GB|d3 B/c/|dd/B/ dd/e/|"D7"cc/B/ AA/B/|cc/d/ ed/c/|"G"B/c/B/A/ GF/G/|"D7"AA/F/ DE/F/|"G"G3:|
|:B/d/|"G"gg gf/e/|"D7"ff fg/f/|"C"ee e/g/f/e/|"G"ed/^c/ d=c/B/|"D7"cc/B/ AG/A/|"G"B/c/B/A/ GF/G/|"D7"AA/F/ DE/F/|"G"G3:|]
V:2 
|:D|DD/B,/ DG|B3G/A/|BB/G/ BB/c/|AA/G/ FF/G/|AA/B/ cB/A/|G/A/G/D/ B,D/E/|FF/D/ CC/C/|B,3:|
|:G/B/|BB Bd/c/|dA dd|cG c/e/d/c/|cB BA/G/|AA/G/ DB,/D/|G/A/G/D/ B,D/E/|FF/D/ CC/C/|B,3:|
V:3 
|:D|B,B,/G,/ B,D|G3B,/D/|GB,/D/ GG|FF/G/ AA/G/|FD/E/ FD/A,/|B,B,/D/ G,C/B,/|DD/C/ D/C/B,/A,/|G,3:|
|:D/C/|[G,DB]B [G,DB]A/G/|[DA][DA] [DFA]z|[G,Ec]c [G,Ec]c |[Gc][GB] [GB]F/G/|DD/E/ FD/A,/|B,B,/D/ G,C/B,/|A,A,/D/ D/C/B,/A,/|[G,3D3]:|
% abcbook-tune_id 6342d53a348229b33e16cdcb


% abcbook-boost 0
% abcbook-tablature 
% abcbook-transpose 
% abcbook-lastupdated 1665484507957
% abcbook-soundfonts 
% abcbook-repeats 1
% NFF Book 2017
% Bush Traditions recording played by Ingrid Wangel

